icons/svg/layers.svg

<svg width="24" height="24" viewBox="0 0 24 24" fill="none" xmlns="http://www.w3.org/2000/svg">
<path d="M12.9912 3.06552C12.3769 2.71503 11.6231 2.71503 11.0088 3.06552L2.75 7.77778L11.0088 12.49C11.6231 12.8405 12.3769 12.8405 12.9912 12.49L21.25 7.77778L12.9912 3.06552Z" stroke="currentColor" stroke-width="1.5" stroke-linejoin="round"/>
<path d="M2.75 12L10.0177 16.1467C11.2463 16.8477 12.7537 16.8477 13.9823 16.1467L21.25 12" stroke="currentColor" stroke-width="1.5" stroke-linecap="round" stroke-linejoin="round"/>
<path d="M2.75 16.2222L10.0177 20.3689C11.2463 21.0699 12.7537 21.0699 13.9823 20.3689L21.25 16.2222" stroke="currentColor" stroke-width="1.5" stroke-linecap="round" stroke-linejoin="round"/>
</svg>

<svg xmlns="http://www.w3.org/2000/svg" width="24" height="24" fill="none" viewBox="0 0 24 24"><path stroke="currentColor" stroke-linejoin="round" stroke-width="1.5" d="M12.991 3.066a2 2 0 0 0-1.982 0L2.75 7.778l8.259 4.712a2 2 0 0 0 1.982 0l8.259-4.712z"/><path stroke="currentColor" stroke-linecap="round" stroke-linejoin="round" stroke-width="1.5" d="m2.75 12 7.268 4.147a4 4 0 0 0 3.964 0L21.25 12"/><path stroke="currentColor" stroke-linecap="round" stroke-linejoin="round" stroke-width="1.5" d="m2.75 16.222 7.268 4.147a4 4 0 0 0 3.964 0l7.268-4.147"/></svg>
